docs/images/university-icon.svg

<svg viewBox="0 0 118.92 118.92" xmlns="http://www.w3.org/2000/svg"><circle cx="59.46" cy="59.46" fill="#ff495c" r="59.46"/><g fill="#f5f4f3"><path d="m29.54 88.4h59.9v3.73h-59.9z"/><path d="m89.7 85.78h-60.48l-.29-45.33 16.47 17.23 14.06-23 14 23 16.48-17.23zm-57-3.5h53.52l.17-33-13.51 14.11-13.42-22-13.46 21.99-13.51-14.15z"/><path d="m59.55 32.47a2.84 2.84 0 1 1 2.84-2.84 2.84 2.84 0 0 1 -2.84 2.84zm0-3.73a.89.89 0 1 0 .89.89.89.89 0 0 0 -.89-.89z"/><path d="m89.44 38.56a2.84 2.84 0 1 1 2.84-2.84 2.84 2.84 0 0 1 -2.84 2.84zm0-3.73a.89.89 0 1 0 .89.89.89.89 0 0 0 -.89-.89z"/><path d="m29.48 38.56a2.84 2.84 0 1 1 2.84-2.84 2.84 2.84 0 0 1 -2.84 2.84zm0-3.73a.89.89 0 1 0 .89.89.89.89 0 0 0 -.89-.89z"/></g></svg>

<svg xmlns="http://www.w3.org/2000/svg" viewBox="0 0 118.92 118.92"><defs><style>.cls-1{fill:#ff495c;}.cls-2{fill:#f5f4f3;}</style></defs><title>university-icon</title><g id="Layer_2" data-name="Layer 2"><g id="Layer_1-2" data-name="Layer 1"><circle class="cls-1" cx="59.46" cy="59.46" r="59.46"/><rect class="cls-2" x="29.54" y="88.4" width="59.9" height="3.73"/><path class="cls-2" d="M89.7,85.78H29.22l-.29-45.33L45.4,57.68l14.06-23,14,23L89.94,40.45Zm-57-3.5H86.22l.17-33L72.88,63.39l-13.42-22L46,63.38,32.49,49.23Z"/><path class="cls-2" d="M59.55,32.47a2.84,2.84,0,1,1,2.84-2.84A2.84,2.84,0,0,1,59.55,32.47Zm0-3.73a.89.89,0,1,0,.89.89A.89.89,0,0,0,59.55,28.74Z"/><path class="cls-2" d="M89.44,38.56a2.84,2.84,0,1,1,2.84-2.84A2.84,2.84,0,0,1,89.44,38.56Zm0-3.73a.89.89,0,1,0,.89.89A.89.89,0,0,0,89.44,34.83Z"/><path class="cls-2" d="M29.48,38.56a2.84,2.84,0,1,1,2.84-2.84A2.84,2.84,0,0,1,29.48,38.56Zm0-3.73a.89.89,0,1,0,.89.89A.89.89,0,0,0,29.48,34.83Z"/></g></g></svg>
